X:1
T:William Billings
T:Andover
%%score [ 1 2 3 4 ]
L:1/8
M:3/2
K:D
V:1 treble nm="Soprano" snm="S"
V:2 alto nm="Alto" snm="A"
V:3 treble-8 nm="Tenor" snm="T"
V:4 bass nm="Bass" snm="B"
V:1
 z4 z4 A4 | A8 A4 | (A4 e4) (d2 c2) | B8 A4 | A8 A4 | (d3 c B4) A4 | A4 ^G8 | A8 d4 | d8 (B2 G2) | %9
w: |||||||||
 A8 A4 | (A4 B2 A2) ^G4 | A8 A4 | (A4 d4) B4 | A8 A4 | A12 | z12 | z12 | z12 | z4 z4 A4 | d8 A4 | %20
w: |||||||||in|God the|
 A8 e4 | (c4 d4) B4 | (A4 B4) d4 | c8 c4 | A8 d4 | (d4 e4) A4 | (A3 B c4) B4 | (c3 B A4) A4 | %28
w: life of|all * my|joys * a-|loud will|I re-|joice * a-|loud * * will|I * * re-|
 A12- |[M:2/2] A2 A2 A2 A2 | B2 B2 B2 B2 | A2 A2 A2 B2 | A4 A4 | A8 | z4 z4 | z8 | z8 | z4 z4 | %38
w: joi-|ce * * *|||||||||
 z4 A4 | d8 | A4 A4- | A4 e4 | (c4 d4) | B4 (A4 | B4) d4 | c8 | c4 A4- | A4 d4 | (d4 e4) | %49
w: in|God|the life|* of|all *|my joys|* a-|loud|will I|* re-|joice *|
 A4 (A3 B | c4) B4 | (c3 B A4) | A4 A4- | A8- | A2 A2 A2 A2 | B2 B2 B2 B2 | A2 A2 A2 B2 | A4 A4 | %58
w: a- loud *|* will|I * *|re- joi-||ce * * *||||
 A8 |] %59
w: |
V:2
 z4 z4 D4 | F8 E4 | (F4 G4) F4 | (D2 EF G4) E4 | F8 F4 | (F3 E D4) F4 | F4 E8 | E8 F4 | F8 D4 | %9
w: |||||||||
 F8 E4 | (F3 E D4) E4 | F8 F4 | (E4 F4) D4 | (A3 G F4) E4 | F12 | z12 | z12 | z4 z4 E4 | F8 F4 | %19
w: ||||||||in|God the|
 F8 E4 | F8 G4 | F8 D4 | (F4 G4) A4 | A8 A4 | (A3 G F4) F4 | G8 F4 | (E4 F4) D4 | A4- A6 G2 | %28
w: life of|all my|joys a-|loud * will|I re-|joice * * a-|loud a-|loud * will|I * re-|
 F12- |[M:2/2] F2 E2 F2 F2 | D2 D2 G2 G2 | E2 E2 F2 D2 | (A3 G F2) E2 | F8 | z4 z4 | z8 | z4 z4 | %37
w: joi-|ce * * *||||||||
 E4 F4- | F4 F4 | F8 | E4 F4- | F4 G4 | F8 | D4 (F4 | G4) A4 | A8 | A4 (A3 G | F4) F4 | G8 | %49
w: in God|* the|life|of all|* my|joys|a- loud|* will|I|re- joice *|* a-|loud|
 F4 (E4 | F4) D4 | A4- A4- | A2 G2 F4- | F8- | F2 E2 F2 F2 | D2 D2 G2 G2 | E2 E2 F2 D2 | %57
w: a- loud|* will|I *|* re- joi-||ce * * *|||
 (A3 G F2) E2 | F8 |] %59
w: ||
V:3
 z4 z4 A4 | d8 c4 | (d3 c B4) A4 | (B2 cd e4) c4 | d8 d4 | (A4 B4) c4 | d4 B8 | A8 A4 | A8 B4 | %9
w: A-|wake my|heart * * a-|rise * * * my|tongue pre-|pare * a|tune- ful|voice in|God the|
 (A4 d4) c4 | (d3 c B2 A2) (B2 c2) | d8 d4 | (c3 B A4) B4 | (A4 d4) c4 | d12 | z12 | z4 z4 d4 | %17
w: life * of|all * * * my *|joys a-|loud * * will|I * re-|joice||in|
 d8 c4 | d8 (c2 A2) | B8 c4 | d8 B4 | (A4 d4) d4 | (d4 e4) f4 | e8 e4 | d8 A4 | B8 d4 | %26
w: God the|life of *|all my|joys a-|loud * will|I * re-|joice in|God the|strength of|
 (c3 B A2) A2 d2 e2 | f2 d2 (e2 d2) c4 | d12- |[M:2/2] d2 c2 d2 d2 | B2 B2 e2 e2 | (ed) c2 d2 d2 | %32
w: all * * my joys a-|loud will I * re|joi-|ce in God the|strength of all my|joys * a- loud will|
 d4 c4 | d8 | z4 z4 | z4 d4 | d8 | c4 d4- | d4 (c2 A2) | B8 | c4 d4- | d4 B4 | (A4 d4) | d4 (d4 | %44
w: I re-|joice||in|God|the life|* of *|all|my joys|* a-|loud *|will I|
 e4) f4 | e8 | e4 d4- | d4 A4 | B8 | d4 (c3 B | A2) A2 d2 e2 | f2 d2 (e2 d2) | c4 d4- | d8- | %54
w: * re-|joice|in God|* the|strength|of all *|* my joys a-|loud will I *|re joi-||
 d2 c2 d2 d2 | B2 B2 e2 e2 | (ed) c2 d2 d2 | d4 c4 | d8 |] %59
w: ce in God the|strength of all my|joys * a- loud will|I re-|joice|
V:4
 z4 z4 D,4 | D,8 A,,4 | (D,4 E,4) F,4 | (G,4 E,4) [A,,A,]4 | D,8 D,4 | (F,4 G,4) F,4 | D,4 E,8 | %7
w: |||||||
 A,,8 D,4 | D,8 G,4 | (F,3 E, D,4) A,,4 | (D,4 G,2 F,2) E,4 | D,8 D,4 | (A,3 G, F,4) G,4 | %13
w: ||||||
 (F,3 E, D,4) A,,4 | D,12 | z4 z4 D,4 | (D,3 E, F,4) G,4 | (F,3 E, D,4) A,,4 | D,8 F,4 | %19
w: ||in|God * * the|life * * of|all my|
 B,,8 A,,4 | D,8 E,4 | (F,3 E, D,4) G,4 | (F,4 E,4) D,4 | A,8 A,4 | (F,3 E, D,4) D,4 | %25
w: joys in|God the|life * * of|all * my|joys a|* loud * a-|
 (G,3 F, E,4) D,4 | (A,3 G, F,4) G,4 | (F,3 G, A,4) A,,4 | D,12- |[M:2/2] D,2 A,,2 D,2 D,2 | %30
w: loud * * a-|loud * * will|I * * re-|joi-|ce * * *|
 G,2 G,2 E,2 E,2 | A,2 (A,G,) F,2 G,2 | A,4 A,,4 | D,8 | D,4 (D,3 E, | F,4) G,4 | (F,3 E, D,4) | %37
w: ||||in God *|* the|life * *|
 A,,4 D,4- | D,4 F,4 | B,,8 | A,,4 D,4- | D,4 E,4 | (F,3 E, D,4) | G,4 (F,4 | E,4) D,4 | A,8 | %46
w: of all|* my|joys|in God|* the|life * *|of all|* my|joys|
 A,4 (F,3 E, | D,4) D,4 | (G,3 F, E,4) | D,4 (A,3 G, | F,4) G,4 | (F,3 G, A,4) | A,,4 D,4- | D,8- | %54
w: a * loud|* a-|loud * *|a- loud *|* will|I * *|re- joi-||
 D,2 A,,2 D,2 D,2 | G,2 G,2 E,2 E,2 | A,2 (A,G,) F,2 G,2 | A,4 A,,4 | D,8 |] %59
w: ce * * *|||||

